X:3881
T:Danza L'Osu (Arrg. Bm)
T:Bear's Dance (Arrg. Bm)
C:Trad.
M:2/4
L:1/8
Q:1/4=150
K:Bm
|:"Bm"fB "Bm"Bf/e/|"Bm"fB "Bm"Bd/e/|"Bm"ff "Bm"ed|"A"e2 "A"ed/e/|
|"D"ff "A"e/d/c|"D"dd "F#m"c/B/A|"Bm"Bd "F#m"c/B/A|"Bm"B3 z:|
|:"Bm"B/c/d "Bm"B/c/d|"F#m"cA "D"A2|"Bm"B/c/d "Bm"B/c/d|"A"e2 "A"ed/e/|
|"D"ff "A"e/d/c|"D"dd "F#m"c/B/A|"Bm"Bd "F#m"c/B/A|"Bm"B3 z:|
